X:1
T:White Robes, 76.76
T:White Robes, 76.76
T:W. D. Farrer, 1889
T:Public Domain Courtesy of the Cyber Hymnal™
C:W. D. Farrer, 1889
Z:Public Domain
Z:Courtesy of the Cyber Hymnal™
%%score ( 1 2 ) ( 3 4 )
L:1/8
Q:1/4=113
M:4/4
K:G
V:1 treble 
V:2 treble 
V:3 bass 
V:4 bass 
V:1
 [GB]2 | [GB]3 [Gc] [Gd]2 [GB]2 | [Ge]4 [Gd]2 [GB]2 | G2 G2 [GA]2 [FA]2 | [GB]6 [GB]2 | %5
 [FA]3 [FB] [Fc]2 [Fe]2 | [Gd]4 [FB]2 [FA]2 | G2 [GB]2 [GA]2 [FA]2 | G6 |] %9
V:2
 x2 | x8 | x8 | G2 G2 x4 | x8 | x8 | x8 | G2 x6 | G6 |] %9
V:3
 [G,D]2 | [G,D]3 [G,C] [G,B,]2 [G,D]2 | [C,C]4 [G,B,]2 [G,B,]2 | [B,D]2 [CE]2 [A,C]2 [A,C]2 | %4
 [G,D]6 [G,D]2 | [D,C]3 [D,B,] [D,A,]2 [C,C]2 | [B,,D]4 [D,D]2 [^D,C]2 | %7
 [E,B,]2 [B,,D]2 [C,E]2 (DC) | [G,,B,]6 |] %9
V:4
 x2 | x8 | x8 | x8 | x8 | x8 | x8 | x6 D,2 | x6 |] %9

